www/assets/icons/difference.svg

<svg xmlns="http://www.w3.org/2000/svg" width="24" height="24" viewBox="0 0 24 24" fill='currentColor'><path d="M18.5 23h-14c-1.1 0-2-.9-2-2V7h2v14h14zm-3-22h-7c-1.1 0-1.99.9-1.99 2L6.5 17c0 1.1.89 2 1.99 2H19.5c1.1 0 2-.9 2-2V7zM17 15h-6v-2h6zm0-6h-2v2h-2V9h-2V7h2V5h2v2h2z"/></svg>

<svg width="24" height="24" viewBox="0 0 24 24" xmlns="http://www.w3.org/2000/svg" fill='currentColor'><path d="M18.5 23H4.5C3.4 23 2.5 22.1 2.5 21V7H4.5V21H18.5V23ZM15.5 1H8.5C7.4 1 6.51 1.9 6.51 3L6.5 17C6.5 18.1 7.39 19 8.49 19H19.5C20.6 19 21.5 18.1 21.5 17V7L15.5 1ZM17 15H11V13H17V15ZM17 9H15V11H13V9H11V7H13V5H15V7H17V9Z"/></svg>
